!!!!SEGMENT: pl-kk--kk-i-7--054-004_certon-pierre--missa-de-sanctis-confessoribus-agnus-dei.krn
!!!cenid: 16xx:882
!!!COM: Certon, Pierre
!!!COM-rismid: pe30006023
!!!CDT: ~1510-1572/02/23
!!!CNT: French
!!!OPR: Missa de Sanctis Confessoribus
!!!OTL: Agnus Dei
!!!OMV: 004
!!!PDT:
!!!AGN: Sacred; Mass
!!!SMS-siglum: PL-Kk
!!!SMS-shelfmark: Kk.I.7
!!!SMS-shelfwork: 054-004 M
!!!SMS-variant:
!!!SMS-altvar:
!!!NIFC-rismid: 300258131
!!!URL-scan: http://repozytorium.nifc.pl/skany/pl-kk-nut--i-7
!!!ONB-nifc: UWAGA: C (skan 0051-0052, s.95-97), A (0135-0136, s.91-93), T(0211-0212. s.85-87), B(0299-0300, s.85-86). Części Mszy: 1. Kyrie, 2. Et in terra, 3. Sanctus, 4. Agnus Dei. "Agnus II" rozpisany na 5 głosów. Głos dodatkowy zapisany w księdze Altowej na stronie 93 skan 0136
**kern	**text	**kern	**text	**kern	**text	**kern	**text	**kern	**text
*part5	*part5	*part4	*part4	*part3	*part3	*part2	*part2	*part1	*part1
*staff5	*staff5	*staff4	*staff4	*staff3	*staff3	*staff2	*staff2	*staff1	*staff1
*Ibass	*	*Itenor	*	*Ialto	*	*Ialto	*	*Ivox	*
*I"[BASSVS.]	*	*I"[TENOR.]	*	*I"[Alto] 2do.	*	*I"[ALTVS.] 1mo.	*	*I"[CANTVS.]	*
*I'B	*	*I'T	*	*I'A 2	*	*I'A 1	*	*I'S	*
*clefF4	*	*clefC4	*	*clefC3	*	*clefC3	*	*clefC1	*
*k[B-b-]	*	*k[b-]	*	*k[b-]	*	*k[b-]	*	*k[b-]	*
*g:	*	*g:	*	*g:	*	*g:	*	*g:	*
*M2/1	*	*M2/1	*	*M2/1	*	*M2/1	*	*M2/1	*
*met(C|)	*	*met(C|)	*	*met(C|)	*	*met(C|)	*	*met(C|)	*
=1-	=1-	=1-	=1-	=1-	=1-	=1-	=1-	=1-	=1-
!	!	!LO:TX:t=P:problem:kreska pseudotaktowa	!	!	!	!	!	!	!
0G\	A-	1r	.	0ryy	.	0r	.	00r	.
.	.	1.d\	A-	.	.	.	.	.	.
=2-	=2-	=2-	=2-	=2-	=2-	=2-	=2-	=2-	=2-
!	!	!	!	!	!	!LO:TX:t=P:problem:kreska pseudotaktowa	!	!	!
1F\	-gnus	.	.	0ryy	.	1r	.	.	.
*	*	*2\right	*	*	*	*	*	*	*
.	.	2c\	-gnus	.	.	.	.	.	.
1G\	De-	1B-\	De-	.	.	0g\	A-	.	.
=3-	=3-	=3-	=3-	=3-	=3-	=3-	=3-	=3-	=3-
!LO:TX:t=P:problem:kreska pseudotaktowa	!	!LO:TX:t=P:problem:kreska pseudotaktowa	!	!	!	!	!	!	!
0D\	-i	0A\	-i	0ryy	.	.	.	1.dd\	A-
.	.	.	.	.	.	1f\	-gnus	.	.
*	*	*	*	*	*	*	*	*2\right	*
.	.	.	.	.	.	.	.	2cc\	-gnus
=4-	=4-	=4-	=4-	=4-	=4-	=4-	=4-	=4-	=4-
0r	.	0r	.	0ryy	.	1g\	De-	1b-\	De-
!	!	!	!	!	!	!	!	!LO:TX:t=P:problem:kreska pseudotaktowa	!
.	.	.	.	.	.	1.d\	.	1a\	-i
=5-	=5-	=5-	=5-	=5-	=5-	=5-	=5-	=5-	=5-
*	*ij	*	*	*	*	*	*	*	*ij
0G\	A-	1r	.	0ryy	.	.	.	0b-\	A-
.	.	.	.	.	.	2c/	.	.	.
*	*	*	*ij	*	*	*	*	*	*
.	.	1.d\	A-	.	.	4B-/	.	.	.
.	.	.	.	.	.	4c/	.	.	.
.	.	.	.	.	.	4d/	.	.	.
.	.	.	.	.	.	4e/	.	.	.
=6-	=6-	=6-	=6-	=6-	=6-	=6-	=6-	=6-	=6-
1F\	-gnus	.	.	0ryy	.	1f\	.	2a\	-gnus
.	.	2c\	-gnus	.	.	.	.	1a\	De-
!	!	!	!	!	!	!LO:TX:t=P:problem:kreska pseudotaktowa	!	!	!
!	!	!	!	!	!	!LO:TX:a:t=4	!	!	!
1G\	De-	1B-\	De-	.	.	00d\	i	.	.
.	.	.	.	.	.	.	.	2g\	.
=7-	=7-	=7-	=7-	=7-	=7-	=7-	=7-	=7-	=7-
!LO:TX:t=P:problem:kreska pseudotaktowa	!	!LO:TX:t=P:problem:kreska pseudotaktowa	!	!	!	!	!	!LO:TX:t=P:problem:kreska pseudotaktowa	!
1D\	-i	1A\	-i	0ryy	.	.	.	00a\	-i
2r	.	1r	.	.	.	.	.	.	.
*2\right	*Xij	*	*Xij	*	*	*	*	*	*Xij
2D\	Qui	.	.	.	.	.	.	.	.
=8-	=8-	=8-	=8-	=8-	=8-	=8-	=8-	=8-	=8-
2D\	tol-	2r	.	0ryy	.	.	.	.	.
2D\	-lis	2A/	qui	.	.	.	.	.	.
!	!	!	!	!	!	!LO:LB:g:=original	!	!	!
1F\	p(ec)-	2A\	tol-	.	.	0r	.	.	.
.	.	2A\	-lis	.	.	.	.	.	.
=9-	=9-	=9-	=9-	=9-	=9-	=9-	=9-	=9-	=9-
2E\	-ca-	1c\	p(ec)-	0ryy	.	.	.	0r	.
2C/	-ta	.	.	.	.	.	.	.	.
!	!	!	!	!	!	!LO:TX:t=P:problem:kreska pseudotaktowa	!	!	!
0G\	mun-	2B-\	-ca-	.	.	1r	.	.	.
.	.	2G/	-ta	.	.	.	.	.	.
=10-	=10-	=10-	=10-	=10-	=10-	=10-	=10-	=10-	=10-
!	!	!	!	!	!	!	!	!LO:TX:t=P:problem:kreska pseudotaktowa	!
.	.	1B-\	mun-	0ryy	.	2r	.	1r	.
*	*	*	*	*	*	*2\right	*	*	*
.	.	.	.	.	.	2d\	Qui	.	.
!LO:TX:t=P:problem:kreska pseudotaktowa	!	!LO:TX:t=P:problem:kreska pseudotaktowa	!	!	!	!	!	!	!
0D\	-di	0A\	-di	.	.	2d\	tol-	2r	.
!	!	!	!	!	!	!LO:TX:t=P:problem:kreska pseudotaktowa	!	!	!
.	.	.	.	.	.	2d\	-lis	2a\	Qui
=11-	=11-	=11-	=11-	=11-	=11-	=11-	=11-	=11-	=11-
.	.	.	.	0ryy	.	1f\	pec-	2a\	tol-
.	.	.	.	.	.	.	.	2a\	-lis
0r	.	0r	.	.	.	2e\	-ca-	1cc\	pec-
.	.	.	.	.	.	2c\	.	.	.
=12-	=12-	=12-	=12-	=12-	=12-	=12-	=12-	=12-	=12-
.	.	.	.	0ryy	.	1g\	-ta	2b-\	-ca-
.	.	.	.	.	.	.	.	2g/	.
!LO:TX:t=P:problem:kreska pseudotaktowa	!	!	!	!	!	!	!	!	!
1r	.	1r	.	.	.	2d\	mun-	1.dd\	-ta
.	.	.	.	.	.	2.g\	.	.	.
=13-	=13-	=13-	=13-	=13-	=13-	=13-	=13-	=13-	=13-
2r	.	2r	.	0ryy	.	.	.	.	.
.	.	.	.	.	.	4f\	.	.	.
2C/	qui	2G/	qui	.	.	4e\	.	4cc\	.
.	.	.	.	.	.	4d\	.	4b-\	.
2C/	tol-	2G/	tol-	.	.	1e\	.	1cc\	mun-
!LO:TX:t=P:problem:kreska pseudotaktowa	!	!	!	!	!	!	!	!	!
2C/	-lis	2G/	-lis	.	.	.	.	.	.
=14-	=14-	=14-	=14-	=14-	=14-	=14-	=14-	=14-	=14-
!	!	!LO:TX:t=P:problem:kreska pseudotaktowa	!	!	!	!LO:TX:t=P:problem:kreska pseudotaktowa	!	!LO:TX:t=P:problem:kreska pseudotaktowa	!
1G\	p(ec)-	1B-\	pec-	0ryy	.	1d\	-di	0dd\	-di
2F\	-ca-	2A/	-ca	.	.	2r	.	.	.
1G\	-ta	4G/	.	.	.	2d\	qui	.	.
.	.	4A/	.	.	.	.	.	.	.
=15-	=15-	=15-	=15-	=15-	=15-	=15-	=15-	=15-	=15-
.	.	4B-\	.	0ryy	.	2d\	tol-	2r	.
.	.	4c\	.	.	.	.	.	.	.
*	*	*	*	*	*	*	*	*	*ij
4F\	.	1d\	.	.	.	2d\	-lis	2a\	Qui
4E\	.	.	.	.	.	.	.	.	.
2D\	mun-	.	.	.	.	1f\	pec-	2a\	tol-
2F\	.	2.c\	ta	.	.	.	.	2a\	-lis
=16-	=16-	=16-	=16-	=16-	=16-	=16-	=16-	=16-	=16-
!LO:TX:t=P:problem:kreska pseudotaktowa	!	!	!	!	!	!LO:TX:t=P:problem:kreska pseudotaktowa	!	!	!
1C/	-di	.	.	0ryy	.	1e\	.	1cc\	pec-
.	.	4B-\	.	.	.	.	.	.	.
.	.	4G/	.	.	.	.	.	.	.
.	.	4A/	.	.	.	.	.	.	.
00r	.	2B-\	.	.	.	2d\	-ca-	2b-\	-ca-
!	!	!LO:TX:t=P:problem:kreska pseudotaktowa	!	!	!	!	!	!	!
.	.	2A\	.	.	.	2c\	-ta	1cc\	-ta
=17-	=17-	=17-	=17-	=17-	=17-	=17-	=17-	=17-	=17-
.	.	4F/	mun-	0ryy	.	1f\	.	.	.
.	.	4G/	.	.	.	.	.	.	.
.	.	4A/	.	.	.	.	.	4b-\	.
!	!	!	!	!	!	!	!	!LO:TX:t=P:problem:kreska pseudotaktowa	!
.	.	4B-/	.	.	.	.	.	4a\	.
.	.	2c\	.	.	.	2e\	.	2g\	mun-
.	.	2G/	.	.	.	1g\	mun-	1b-\	.
=18-	=18-	=18-	=18-	=18-	=18-	=18-	=18-	=18-	=18-
!	!	!LO:TX:t=P:problem:kreska pseudotaktowa	!	!	!	!	!	!	!
.	.	1d\	-di	0ryy	.	.	.	.	.
.	.	.	.	.	.	2f\	.	2a\	.
!	!	!LO:TX:t=P:problem:kreska pseudotaktowa	!	!	!	!	!	!	!
2r	.	0r	.	.	.	2e\	.	2g/	.
2B-\	mi-	.	.	.	.	1d\	.	2f/	.
=19-	=19-	=19-	=19-	=19-	=19-	=19-	=19-	=19-	=19-
2G\	-ſe-	.	.	0ryy	.	.	.	1e/	.
!LO:TX:t=P:problem:kreska pseudotaktowa	!	!	!	!	!	!	!	!	!
!LO:SIC:v:t=custos B	!	!	!	!	!	!	!	!	!
2A\	-re-	.	.	.	.	2c\	.	.	.
!LO:LB:g=original	!	!LO:LB:g=original	!	!	!	!	!	!	!
!	!	!	!	!	!	!LO:TX:t=P:problem:kreska pseudotaktowa	!	!LO:TX:t=P:problem:kreska pseudotaktowa	!
2B-\	-re	2r	.	.	.	1d\	-di	0d/	-di
1G\	no-	2B-\	mi-	.	.	.	.	.	.
=20-	=20-	=20-	=20-	=20-	=20-	=20-	=20-	=20-	=20-
.	.	2G/	-ſe-	0ryy	.	2r	.	.	.
2F\	.	2A\	-re-	.	.	2f\	mi-	.	.
!LO:TX:t=P:problem:kreska pseudotaktowa	!	!	!	!	!	!	!	!	!
1G\	-bis	2.B-\	-re	.	.	2d\	.	1r	.
.	.	.	.	.	.	2e\	-ſe-	.	.
!	!	!LO:TX:t=P:problem:kreska pseudotaktowa	!	!	!	!	!	!	!
.	.	4c\	.	.	.	.	.	.	.
=21-	=21-	=21-	=21-	=21-	=21-	=21-	=21-	=21-	=21-
0r	.	2d\	.	0ryy	.	2f\	-re-	2r	.
*	*	*	*	*	*	*	*	*	*Xij
!	!	!	!	!	!	!LO:TX:t=P:problem:kreska pseudotaktowa	!	!LO:TX:t=P:problem:kreska pseudotaktowa	!
.	.	1e\	.	.	.	2g\	-re	2b-\	mi-
!	!	!	!	!	!	!	!	!LO:LB:g=original	!
.	.	.	.	.	.	2g\	no-	2g\	-se-
.	.	4d\	no-	.	.	4f\	.	2a\	-re-
.	.	4c\	.	.	.	4e\	.	.	.
=22-	=22-	=22-	=22-	=22-	=22-	=22-	=22-	=22-	=22-
!	!	!LO:TX:t=P:problem:kreska pseudotaktowa	!	!	!	!	!	!	!
2r	.	1d\	-bis	0ryy	.	2f\	.	2b-\	-re
*	*ij	*	*	*	*	*	*	*	*
2B-\	mi-	.	.	.	.	2g\	.	1dd\	no-
2G\	-ſe-	1r	.	.	.	1e\	.	.	.
2A\	-re-	.	.	.	.	.	.	2cc\	.
=23-	=23-	=23-	=23-	=23-	=23-	=23-	=23-	=23-	=23-
!	!	!	!	!	!	!LO:TX:t=P:problem:kreska pseudotaktowa	!	!	!
2B-\	-re	2r	.	0ryy	.	1d\	-bis	2dd\	.
*	*	*	*ij	*	*	*	*	*	*
1G\	no-	2B-\	mi-	.	.	.	.	1b-\	.
!	!	!	!	!	!	!LO:LB:g=original	!	!	!
.	.	2G/	-ſe-	.	.	2r	.	.	.
!LO:TX:t=P:problem:kreska pseudotaktowa	!	!LO:TX:t=P:problem:kreska pseudotaktowa	!	!	!	!	!	!	!
2F\	.	2A/	-re-	.	.	2f\	mi-	1a\	.
=24-	=24-	=24-	=24-	=24-	=24-	=24-	=24-	=24-	=24-
1G\	.	1B-\	-re	0ryy	.	2d\	ſe-	.	.
!	!	!	!	!	!	!	!	!LO:TX:t=P:problem:kreska pseudotaktowa	!
.	.	.	.	.	.	2e\	-re-	2g\	.
2F\	.	2c\	no-	.	.	2f\	-re	2a\	.
4E\	.	1d\	.	.	.	1B-/	no-	2f/	.
4D\	.	.	.	.	.	.	.	.	.
=25-	=25-	=25-	=25-	=25-	=25-	=25-	=25-	=25-	=25-
1E\	.	.	.	0ryy	.	.	.	1g\	.
.	.	2c\	.	.	.	2G/	.	.	.
!LO:TX:t=P:problem:kreska pseudotaktowa	!	!LO:TX:t=P:problem:kreska pseudotaktowa	!	!	!	!	!	!	!
1D\	-bis	1d\	-bis	.	.	2A/	.	1.f/	.
.	.	.	.	.	.	2.B-/	.	.	.
=26-	=26-	=26-	=26-	=26-	=26-	=26-	=26-	=26-	=26-
00r	.	2r	.	0ryy	.	.	.	.	.
.	.	.	.	.	.	4A/	.	.	.
*	*	*	*Xij	*	*	*	*	*	*
.	.	2B-\	mi-	.	.	1d\	.	2d/	.
!	!	!	!	!	!	!	!	!LO:TX:t=P:problem:kreska pseudotaktowa	!
.	.	2G/	-ſe-	.	.	.	.	1e/	-bis
!	!	!	!	!	!	!LO:TX:t=P:problem:kreska pseudotaktowa	!	!	!
.	.	2A\	-re-	.	.	2c\	.	.	.
=27-	=27-	=27-	=27-	=27-	=27-	=27-	=27-	=27-	=27-
.	.	2B-\	-re	0ryy	.	2d\	.	2r	.
.	.	1d\	no-	.	.	1B-/	.	2f/	mi-
.	.	.	.	.	.	.	.	2d/	-ſe-
!	!	!LO:TX:t=P:problem:kreska pseudotaktowa	!	!	!	!	!	!	!
.	.	2c\	.	.	.	4A/	.	2e/	-re-
.	.	.	.	.	.	4G/	.	.	.
*	*Xij	*	*	*	*	*	*	*	*
=28-	=28-	=28-	=28-	=28-	=28-	=28-	=28-	=28-	=28-
1BB-/	mi-	2d\	.	0ryy	.	2F/	.	1f/	-re
.	.	1B-\	.	.	.	1d\	.	.	.
2GG/	-ſe-	.	.	.	.	.	.	1e/	no-
2AA/	-re-	4A/	.	.	.	2c\	.	.	.
.	.	4G/	.	.	.	.	.	.	.
=29-	=29-	=29-	=29-	=29-	=29-	=29-	=29-	=29-	=29-
2.BB-/	-re	2F/	.	0ryy	.	00.d\;	-bis.	2d/	.
.	.	2B-\	.	.	.	.	.	1g\	.
4C/	.	.	.	.	.	.	.	.	.
1D\	no-	1A\	.	.	.	.	.	.	.
.	.	.	.	.	.	.	.	2f#X/	.
=30-	=30-	=30-	=30-	=30-	=30-	=30-	=30-	=30-	=30-
00GG/;	-bis.	00Bn\;	bis.	00ryy	.	.	.	00g\;	-bis.
=31||-	=31||-	=31||-	=31||-	=31||-	=31||-	=31||-	=31||-	=31||-	=31||-
*	*	*	*	*	*	*M2/1	*	*M2/1	*
*	*	*	*	*	*	*met(C|)	*	*met(C|)	*
!LO:TX:a:t=Agnus 2dum Tacet	!	!LO:TX:a:t=Agnus 2dum\nTacet	!	!	!	!	!	!	!
0ryy	.	0ryy	.	0ryy	.	0g\	A-	00r	.
=32-	=32-	=32-	=32-	=32-	=32-	=32-	=32-	=32-	=32-
0ryy	.	0ryy	.	0ryy	.	1f\	.	.	.
.	.	.	.	.	.	1e\	-gnus	.	.
=33-	=33-	=33-	=33-	=33-	=33-	=33-	=33-	=33-	=33-
0ryy	.	0ryy	.	0ryy	.	2d\	De-	0dd\	A-
.	.	.	.	.	.	4G/	.	.	.
.	.	.	.	.	.	4A/	.	.	.
.	.	.	.	.	.	4B-/	.	.	.
.	.	.	.	.	.	4c/	.	.	.
.	.	.	.	.	.	4d/	.	.	.
.	.	.	.	.	.	4e/	.	.	.
=34-	=34-	=34-	=34-	=34-	=34-	=34-	=34-	=34-	=34-
0ryy	.	0ryy	.	0ryy	.	4f\	.	1cc\	-gn(us)
.	.	.	.	.	.	4g\	.	.	.
.	.	.	.	.	.	1a\	.	.	.
.	.	.	.	.	.	.	.	1b-\	De-
.	.	.	.	.	.	1g\	.	.	.
=35-	=35-	=35-	=35-	=35-	=35-	=35-	=35-	=35-	=35-
!	!	!	!	!	!	!	!	!LO:TX:t=P:problem:kreska pseudotaktowa	!
0ryy	.	0ryy	.	0ryy	.	.	.	1a\	-i
.	.	.	.	.	.	2f\	.	.	.
!	!	!	!	!	!	!LO:TX:t=P:problem:kreska pseudotaktowa	!	!	!
.	.	.	.	.	.	1g\	-i	2r	.
.	.	.	.	.	.	.	.	1b-\	A-
=36-	=36-	=36-	=36-	=36-	=36-	=36-	=36-	=36-	=36-
0ryy	.	0ryy	.	0ryy	.	1r	.	.	.
.	.	.	.	.	.	.	.	4a\	.
.	.	.	.	.	.	.	.	4g\	.
.	.	.	.	.	.	0d\	/A-	2b-\	.
.	.	.	.	.	.	.	.	1a\	.
=37-	=37-	=37-	=37-	=37-	=37-	=37-	=37-	=37-	=37-
0ryy	.	0ryy	.	0ryy	.	.	.	.	.
.	.	.	.	.	.	.	.	4g/	.
.	.	.	.	.	.	.	.	4f/	.
.	.	.	.	.	.	1c\	-gnus	2e/	-gnus
.	.	.	.	.	.	.	.	1a\	De-
=38-	=38-	=38-	=38-	=38-	=38-	=38-	=38-	=38-	=38-
0ryy	.	0ryy	.	0ryy	.	1B-/	De-	.	.
.	.	.	.	.	.	.	.	1g\	.
!	!	!	!	!	!	!LO:TX:t=P:problem:kreska pseudotaktowa	!	!	!
.	.	.	.	.	.	1A/	-i/	.	.
.	.	.	.	.	.	.	.	2f/	.
=39-	=39-	=39-	=39-	=39-	=39-	=39-	=39-	=39-	=39-
!	!	!	!	!	!	!	!	!LO:TX:t=P:problem:kreska pseudotaktowa	!
0ryy	.	0ryy	.	0ryy	.	1r	.	1g\	-i
!	!	!	!	!	!	!	!	!LO:TX:t=P:problem:kreska pseudotaktowa	!
.	.	.	.	.	.	2.G/	qui	1r	.
.	.	.	.	.	.	4A/	.	.	.
!	!	!	!	!	!	!	!	!LO:LB:g=original	!
=40-	=40-	=40-	=40-	=40-	=40-	=40-	=40-	=40-	=40-
0ryy	.	0ryy	.	0ryy	.	4B-/	.	2.d/	Qui
.	.	.	.	.	.	4c/	.	.	.
.	.	.	.	.	.	1B-/	tol-	.	.
.	.	.	.	.	.	.	.	4e/	.
.	.	.	.	.	.	.	.	4f/	.
.	.	.	.	.	.	.	.	4g/	.
.	.	.	.	.	.	4A/	.	1f/	tol-
!	!	!	!	!	!	!LO:TX:t=P:problem:kreska pseudotaktowa	!	!	!
.	.	.	.	.	.	4G/	.	.	.
!	!	!	!	!	!	!LO:LB:g=original	!	!	!
=41-	=41-	=41-	=41-	=41-	=41-	=41-	=41-	=41-	=41-
0ryy	.	0ryy	.	0ryy	.	1B-/	.	.	.
.	.	.	.	.	.	.	.	4e/	.
.	.	.	.	.	.	.	.	4d/	.
.	.	.	.	.	.	2A/	.	1f/	.
.	.	.	.	.	.	1d\	.	.	.
=42-	=42-	=42-	=42-	=42-	=42-	=42-	=42-	=42-	=42-
!	!	!	!	!	!	!	!	!LO:TX:t=P:problem:kreska pseudotaktowa	!
0ryy	.	0ryy	.	0ryy	.	.	.	1e/	-lis
!	!	!	!	!	!	!LO:TX:t=P:problem:kreska pseudotaktowa	!	!	!
.	.	.	.	.	.	2c\	.	.	.
.	.	.	.	.	.	2.d\	.	1r	.
.	.	.	.	.	.	4e\	.	.	.
=43-	=43-	=43-	=43-	=43-	=43-	=43-	=43-	=43-	=43-
0ryy	.	0ryy	.	0ryy	.	4f\	.	2.a\	qui
.	.	.	.	.	.	4g\	.	.	.
.	.	.	.	.	.	1f\	.	.	.
.	.	.	.	.	.	.	.	4b-\	.
.	.	.	.	.	.	.	.	4cc\	.
.	.	.	.	.	.	.	.	4dd\	.
.	.	.	.	.	.	4e\	.	1cc\	tol-
.	.	.	.	.	.	4d\	.	.	.
=44-	=44-	=44-	=44-	=44-	=44-	=44-	=44-	=44-	=44-
!	!	!	!	!	!	!LO:TX:t=P:problem:kreska pseudotaktowa	!	!	!
0ryy	.	0ryy	.	0ryy	.	1e\	.	.	.
.	.	.	.	.	.	.	.	4b-\	.
.	.	.	.	.	.	.	.	4a\	.
.	.	.	.	.	.	2d,\	-lis	1b-\	.
.	.	.	.	.	.	1g\	pec-	.	.
=45-	=45-	=45-	=45-	=45-	=45-	=45-	=45-	=45-	=45-
0ryy	.	0ryy	.	0ryy	.	.	.	2a,\	-lis
.	.	.	.	.	.	2f\	.	1dd\	pec-
!	!	!	!	!	!	!LO:TX:t=P:problem:kreska pseudotaktowa	!	!	!
.	.	.	.	.	.	1e\	-ca-	.	.
!	!	!	!	!	!	!	!	!LO:TX:t=P:problem:kreska pseudotaktowa	!
.	.	.	.	.	.	.	.	2cc\	-ca-
=46-	=46-	=46-	=46-	=46-	=46-	=46-	=46-	=46-	=46-
0ryy	.	0ryy	.	0ryy	.	2.d\	-ta	2b-\	-ta
.	.	.	.	.	.	.	.	2.a\	.
.	.	.	.	.	.	4c\	.	.	.
.	.	.	.	.	.	4d\	.	.	.
.	.	.	.	.	.	4e\	.	4g\	.
.	.	.	.	.	.	4f\	mun-	4a\	mun-
.	.	.	.	.	.	4d\	.	4b-\	.
=47-	=47-	=47-	=47-	=47-	=47-	=47-	=47-	=47-	=47-
0ryy	.	0ryy	.	0ryy	.	4e\	.	4cc\	.
.	.	.	.	.	.	4f\	.	4a\	.
.	.	.	.	.	.	2g\	.	4b-\	.
.	.	.	.	.	.	.	.	4cc\	.
.	.	.	.	.	.	2d\	.	2.dd\	.
.	.	.	.	.	.	1f\	.	.	.
.	.	.	.	.	.	.	.	8cc\L	.
.	.	.	.	.	.	.	.	8b-\J	.
=48-	=48-	=48-	=48-	=48-	=48-	=48-	=48-	=48-	=48-
0ryy	.	0ryy	.	0ryy	.	.	.	2a\	.
.	.	.	.	.	.	4e\	.	1dd\	.
.	.	.	.	.	.	4d\	.	.	.
.	.	.	.	.	.	1e\	.	.	.
.	.	.	.	.	.	.	.	2cc\	.
=49-	=49-	=49-	=49-	=49-	=49-	=49-	=49-	=49-	=49-
!	!	!	!	!	!	!LO:TX:t=P:problem:kreska pseudotaktowa	!	!LO:TX:t=P:problem:kreska pseudotaktowa	!
0ryy	.	0ryy	.	0ryy	.	0.d\	-di	1dd\	-di
.	.	.	.	.	.	.	.	2r	.
.	.	.	.	.	.	.	.	2a\	mi-
=50-	=50-	=50-	=50-	=50-	=50-	=50-	=50-	=50-	=50-
0ryy	.	0ryy	.	0ryy	.	.	.	2b-\	-ſe-
.	.	.	.	.	.	.	.	2a\	-re-
!	!	!	!	!	!	!	!	!LO:TX:t=P:problem:kreska pseudotaktowa	!
.	.	.	.	.	.	2r	.	1dd\	-re
.	.	.	.	.	.	2d\	mi-	.	.
=51-	=51-	=51-	=51-	=51-	=51-	=51-	=51-	=51-	=51-
0ryy	.	0ryy	.	0ryy	.	2e\	-ſe-	2cc\	no-
.	.	.	.	.	.	2d\	-re-	1b-\	.
.	.	.	.	.	.	1g\	.	.	.
.	.	.	.	.	.	.	.	4a\	.
.	.	.	.	.	.	.	.	4g\	.
=52-	=52-	=52-	=52-	=52-	=52-	=52-	=52-	=52-	=52-
0ryy	.	0ryy	.	0ryy	.	2f\	-re	2a\	.
.	.	.	.	.	.	1e\	.	2.g/	.
.	.	.	.	.	.	.	.	4f/	.
.	.	.	.	.	.	4d\	no-	4g/	.
.	.	.	.	.	.	4c\	.	4a/	.
=53-	=53-	=53-	=53-	=53-	=53-	=53-	=53-	=53-	=53-
0ryy	.	0ryy	.	0ryy	.	2d\	.	2b-\	.
!	!	!	!	!	!	!LO:TX:t=P:problem:kreska pseudotaktowa	!	!LO:TX:t=P:problem:kreska pseudotaktowa:między nutą a kropką	!
.	.	.	.	.	.	2c\	.	[<2cc\	.
!	!	!	!	!	!	!	!	!LO:LB:g=original	!
!	!	!	!	!	!	!	!	!LO:N:xstem:cue	!
.	.	.	.	.	.	2.f\	.	4cc\]	.
.	.	.	.	.	.	.	.	4b-\	.
.	.	.	.	.	.	.	.	4a\	.
.	.	.	.	.	.	4e\	.	4g\	.
=54-	=54-	=54-	=54-	=54-	=54-	=54-	=54-	=54-	=54-
0ryy	.	0ryy	.	0ryy	.	4d/	.	4f/	.
.	.	.	.	.	.	4c/	.	4e/	.
.	.	.	.	.	.	4B-/	.	2d/	.
.	.	.	.	.	.	4A/	.	.	.
.	.	.	.	.	.	2G/	.	1g\	.
.	.	.	.	.	.	2.e\	.	.	.
=55-	=55-	=55-	=55-	=55-	=55-	=55-	=55-	=55-	=55-
0ryy	.	0ryy	.	0ryy	.	.	.	1f/	.
.	.	.	.	.	.	4d\	.	.	.
.	.	.	.	.	.	1d\	.	.	.
.	.	.	.	.	.	.	.	1e/	.
!	!	!	!	!	!	!LO:TX:t=P:problem:kreska pseudotaktowa	!	!	!
.	.	.	.	.	.	2c\	.	.	.
!	!	!	!	!	!	!LO:LB:g=original	!	!	!
=56-	=56-	=56-	=56-	=56-	=56-	=56-	=56-	=56-	=56-
!	!	!	!	!	!	!LO:TX:t=P:problem:kreska pseudotaktowa	!	!LO:TX:t=P:problem:kreska pseudotaktowa	!
0ryy	.	0ryy	.	0ryy	.	1d\	-bis,	0d/	-bis.
.	.	.	.	.	.	2r	.	.	.
.	.	.	.	.	.	1d\	mi-	.	.
=57-	=57-	=57-	=57-	=57-	=57-	=57-	=57-	=57-	=57-
!	!	!	!	!	!	!	!	!LO:TX:t=P:problem:kreska pseudotaktowa	!
0ryy	.	0ryy	.	0ryy	.	.	.	1r	.
.	.	.	.	.	.	4c/	-ſe-	.	.
.	.	.	.	.	.	4B-/	.	.	.
.	.	.	.	.	.	2c\	re-	1a\	mi-
.	.	.	.	.	.	2d\	-re	.	.
=58-	=58-	=58-	=58-	=58-	=58-	=58-	=58-	=58-	=58-
0ryy	.	0ryy	.	0ryy	.	4G/	.	1b-\	-ſe-
.	.	.	.	.	.	4A/	.	.	.
.	.	.	.	.	.	4B-/	no-	.	.
.	.	.	.	.	.	4c/	.	.	.
.	.	.	.	.	.	4d\	.	1a\	-re-
.	.	.	.	.	.	4e\	.	.	.
.	.	.	.	.	.	1f\	.	.	.
=59-	=59-	=59-	=59-	=59-	=59-	=59-	=59-	=59-	=59-
!	!	!	!	!	!	!	!	!LO:TX:t=P:problem:kreska pseudotaktowa	!
0ryy	.	0ryy	.	0ryy	.	.	.	1dd\	-re
.	.	.	.	.	.	4e\	.	.	.
.	.	.	.	.	.	4d\	.	.	.
.	.	.	.	.	.	2e\	.	2cc\	no-
!	!	!	!	!	!	!LO:TX:t=P:problem:kreska pseudotaktowa	!	!	!
.	.	.	.	.	.	2d\	.	2.dd\	.
=60-	=60-	=60-	=60-	=60-	=60-	=60-	=60-	=60-	=60-
0ryy	.	0ryy	.	0ryy	.	2.g\	.	.	.
.	.	.	.	.	.	.	.	4cc\	.
.	.	.	.	.	.	.	.	4b-\	.
.	.	.	.	.	.	4f\	.	4a\	.
.	.	.	.	.	.	4e\	.	2g/	.
.	.	.	.	.	.	4d\	.	.	.
.	.	.	.	.	.	2c\	.	2.a/	.
=61-	=61-	=61-	=61-	=61-	=61-	=61-	=61-	=61-	=61-
0ryy	.	0ryy	.	0ryy	.	1d\	.	.	.
.	.	.	.	.	.	.	.	4g/	.
.	.	.	.	.	.	.	.	4f/	.
.	.	.	.	.	.	.	.	4e/	.
.	.	.	.	.	.	2B-/	.	2d/	.
.	.	.	.	.	.	1c\	.	1a\	.
=62-	=62-	=62-	=62-	=62-	=62-	=62-	=62-	=62-	=62-
0ryy	.	0ryy	.	0ryy	.	.	.	.	.
.	.	.	.	.	.	2B-/	.	1g\	.
.	.	.	.	.	.	1A/	.	.	.
.	.	.	.	.	.	.	.	2f#X/	.
=63-	=63-	=63-	=63-	=63-	=63-	=63-	=63-	=63-	=63-
00ryy	.	00ryy	.	00ryy	.	00Bn/;	-bis.	00g\;	-bis.
!LO:LB:g=original	!	!LO:LB:g=original	!	!	!	!	!	!	!
=64||-	=64||-	=64||-	=64||-	=64||-	=64||-	=64||-	=64||-	=64||-	=64||-
*clefF4	*	*clefC4	*	*clefC3	*	*	*	*clefC1	*
*k[b-]	*	*k[b-]	*	*k[b-]	*	*	*	*k[b-]	*
*M2/1	*	*M2/1	*	*M2/1	*	*M2/1	*	*M2/1	*
*met(C|)	*	*met(C|)	*	*met(C|)	*	*met(C|)	*	*met(C|)	*
!LO:TX:a:t=a 5. Voci.\n2b(us) altis.	!	!	!	!	!	!	!	!	!
0r	.	0r	.	00r	.	1.g\	A-	0dd\	A-
.	.	.	.	.	.	2f\	-gn(us)	.	.
=65-	=65-	=65-	=65-	=65-	=65-	=65-	=65-	=65-	=65-
!LO:TX:t=P:problem:kreska pseudotaktowa	!	!LO:TX:t=P:problem:kreska pseudotaktowa	!	!	!	!	!	!	!
1r	.	1r	.	.	.	1e\	De-	1cc\	-gnus
1.G\	A-	0d\	A-	.	.	2d\	.	1dd\	De-
.	.	.	.	.	.	2.B-/	.	.	.
=66-	=66-	=66-	=66-	=66-	=66-	=66-	=66-	=66-	=66-
!	!	!	!	!LO:TX:t=P:problem:kreska pseudotaktowa	!	!	!	!LO:TX:t=P:problem:kreska pseudotaktowa	!
.	.	.	.	1r	.	.	.	1a\	-i
.	.	.	.	.	.	4A/	.	.	.
2F\	-gnus	.	.	.	.	1A/	.	.	.
1E\	De-	1c\	-gn(us)	1.g\	A-	.	.	1r	.
.	.	.	.	.	.	2G/	.	.	.
=67-	=67-	=67-	=67-	=67-	=67-	=67-	=67-	=67-	=67-
!LO:TX:t=P:problem:kreska pseudotaktowa	!	!	!	!	!	!LO:TX:t=P:problem:kreska pseudotaktowa	!	!	!
1D\	-i	1d\	De-	.	.	1A/	.	2r	.
*	*	*	*	*2\right	*	*	*	*	*ij
.	.	.	.	2f\	-gn(us)	.	.	1dd\	A-
!	!	!LO:TX:t=P:problem:kreska pseudotaktowa	!	!	!	!	!	!	!
1r	.	1A\	-i	1e\	De-	1.a\	.	.	.
.	.	.	.	.	.	.	.	2cc\	-gnus
=68-	=68-	=68-	=68-	=68-	=68-	=68-	=68-	=68-	=68-
!	!	!	!	!LO:TX:t=P:problem:kreska pseudotaktowa	!	!	!	!	!
*	*ij	*	*	*	*	*	*	*	*
0G\	A-	1r	.	0d\	-i	.	.	0b-\	De-
.	.	.	.	.	.	4g\	.	.	.
.	.	.	.	.	.	4f\	.	.	.
*	*	*	*ij	*	*	*	*	*	*
.	.	1.d\	A-	.	.	1g\	.	.	.
=69-	=69-	=69-	=69-	=69-	=69-	=69-	=69-	=69-	=69-
1F\	-gnus	.	.	1r	.	1a\	.	2a\	-i
.	.	2c\	-gnus	.	.	.	.	1a\	De-
!	!	!	!	!	!	!LO:TX:t=P:problem:kreska pseudotaktowa	!	!	!
1G\	De-	1B-\	De-	2r	.	1d\	-i	.	.
!	!	!	!	!LO:TX:t=P:problem:kreska pseudotaktowa	!	!	!	!LO:TX:t=P:problem:kreska pseudotaktowa	!
.	.	.	.	2d\	qui	.	.	2g/	.
=70-	=70-	=70-	=70-	=70-	=70-	=70-	=70-	=70-	=70-
!LO:TX:t=P:problem:kreska pseudotaktowa	!	!	!	!	!	!	!	!	!
!LO:TX:a:t=4	!	!LO:TX:t=P:problem:kreska pseudotaktowa	!	!	!	!	!	!LO:TX:t=P:problem:kreska pseudotaktowa	!
00D\	-i	0.A\	-i	2d\	tol-	2r	.	0a\	-i
!	!	!	!	!	!	!LO:TX:t=P:problem:kreska pseudotaktowa	!	!	!
.	.	.	.	2d\	-lis	2d\	qui	.	.
!	!	!	!	!	!	!LO:LB:g=original	!	!	!
.	.	.	.	2.f\	pec-	2d\	tol-	.	.
.	.	.	.	.	.	2d\	-lis	.	.
!	!	!	!	!LO:TX:t=P:problem:kreska pseudotaktowa	!	!	!	!	!
.	.	.	.	4e\	.	.	.	.	.
!	!	!	!	!	!	!	!	!LO:LB:g=original	!
=71-	=71-	=71-	=71-	=71-	=71-	=71-	=71-	=71-	=71-
.	.	.	.	4d\	.	1.f\	pec-	2r	.
.	.	.	.	4c\	.	.	.	.	.
*	*	*	*	*	*	*	*	*	*Xij
.	.	.	.	1d\	-ca-	.	.	2a\	qui
.	.	0r	.	.	.	.	.	2a\	tol-
.	.	.	.	4c/	.	4e\	.	2a\	-lis
.	.	.	.	4B-/	.	4d\	.	.	.
=72-	=72-	=72-	=72-	=72-	=72-	=72-	=72-	=72-	=72-
00r	.	.	.	2A/	-ta	2e\	-ca-	1cc\	pec-
.	.	.	.	2A/	mun-	2f\	-ta	.	.
!	!	!	!	!LO:TX:t=P:problem:kreska pseudotaktowa	!	!	!	!	!
.	.	2r	.	1G/	-di	1g\	mun-	2.b-\	-ca-
*	*	*	*Xij	*	*	*	*	*	*
.	.	2G/	qui	.	.	.	.	.	.
.	.	.	.	.	.	.	.	4a/	.
=73-	=73-	=73-	=73-	=73-	=73-	=73-	=73-	=73-	=73-
!	!	!	!	!	!	!LO:TX:t=P:problem:kreska pseudotaktowa	!	!	!
.	.	2G/	tol-	2r	.	0d\	-di	4g/	.
.	.	.	.	.	.	.	.	4f/	.
!	!	!LO:TX:t=P:problem:kreska pseudotaktowa	!	!	!	!	!	!	!
.	.	2G/	-lis	2G/	qui	.	.	2g/	-ta
.	.	2.B-\	pec-	2G/	tol-	.	.	2d,/	.
!	!	!	!	!LO:TX:t=P:problem:kreska pseudotaktowa	!	!	!	!	!
.	.	.	.	2G/	-lis	.	.	2dd\	pec-
.	.	4A/	.	.	.	.	.	.	.
=74-	=74-	=74-	=74-	=74-	=74-	=74-	=74-	=74-	=74-
00r	.	4G/	.	1.B-/	pec-	2r	.	1dd\	-ca-
.	.	4F/	.	.	.	.	.	.	.
.	.	1G/	-ca-	.	.	1d\	p(ec)-	.	.
.	.	.	.	.	.	.	.	4g\	.
.	.	.	.	.	.	.	.	4a\	.
.	.	4F/	.	4A/	.	2d\	-ca-	4b-\	.
!	!	!	!	!	!	!	!	!LO:TX:t=P:problem:kreska pseudotaktowa	!
.	.	4E/	.	4G/	.	.	.	4cc\	.
=75-	=75-	=75-	=75-	=75-	=75-	=75-	=75-	=75-	=75-
.	.	2D,/	ta	2A/	-ca-	1f\	-ta	4dd\	-ta
.	.	.	.	.	.	.	.	4ee\	.
.	.	2D/	mun-	2B-/	.	.	.	1dd\	mun-
!	!	!LO:TX:t=P:problem:kreska pseudotaktowa	!	!LO:TX:t=P:problem:kreska pseudotaktowa	!	!	!	!	!
.	.	1A\	-di	1c\	.	1e\	mun-	.	.
.	.	.	.	.	.	.	.	2cc\	.
*	*Xij	*	*	*	*	*	*	*	*
=76-	=76-	=76-	=76-	=76-	=76-	=76-	=76-	=76-	=76-
!	!	!	!	!	!	!LO:TX:t=P:problem:kreska pseudotaktowa	!	!LO:TX:t=P:problem:kreska pseudotaktowa	!
1G\	Qui	1r	.	2G/	.	0d\	-di	00.dd\	-di.
.	.	.	.	2.B-/	.	.	.	.	.
2G\	tol-	1G/	qui	.	.	.	.	.	.
.	.	.	.	4A/	.	.	.	.	.
2G\	-lis	.	.	4B-/	.	.	.	.	.
.	.	.	.	4c/	.	.	.	.	.
=77-	=77-	=77-	=77-	=77-	=77-	=77-	=77-	=77-	=77-
2.B-\	pec-	2G/	tol-	4d\	.	1r	.	.	.
.	.	.	.	4e\	.	.	.	.	.
!	!	!LO:TX:t=P:problem:kreska pseudotaktowa	!	!	!	!	!	!	!
.	.	2G/	-llis	1d\	-ta	.	.	.	.
4A\	.	.	.	.	.	.	.	.	.
4G\	-ca-	1.B-\	pec-	.	.	1d\	qui	.	.
4F\	.	.	.	.	.	.	.	.	.
1G\	.	.	.	2G/	mun-	.	.	.	.
=78-	=78-	=78-	=78-	=78-	=78-	=78-	=78-	=78-	=78-
.	.	.	.	2.B-/	.	2d\	tol-	.	.
!	!	!	!	!	!	!LO:TX:t=P:problem:kreska pseudotaktowa	!	!	!
4F\	.	4A/	.	.	.	2d\	-lis	.	.
4E\	.	4G/	.	4c/	.	.	.	.	.
2D/	.	2A\	-ca-	1d\	.	1.f\	pec-	.	.
!	!	!LO:TX:t=P:problem:kreska pseudotaktowa	!	!	!	!	!	!	!
2D/	-ta	2B-\	.	.	.	.	.	.	.
=79-	=79-	=79-	=79-	=79-	=79-	=79-	=79-	=79-	=79-
!	!	!	!	!LO:TX:t=P:problem:kreska pseudotaktowa	!	!	!	!	!
0C/	mun-	1c\	.	1G/	-di	.	.	2r	.
.	.	.	.	.	.	4e\	ca-	2g/	qui
.	.	.	.	.	.	4d\	.	.	.
.	.	2G/	.	2r	.	2.e\	-ta	2g/	tol-
!	!	!LO:TX:t=P:problem:kreska pseudotaktowa	!	!	!	!	!	!	!
!	!	!LO:SIC:v:t=custos B	!	!	!	!	!	!	!
.	.	2c\	.	2G/	Qui	.	.	2g/	-lis
.	.	.	.	.	.	4f\	.	.	.
!	!	!LO:LB:g=original	!	!	!	!	!	!	!
=80-	=80-	=80-	=80-	=80-	=80-	=80-	=80-	=80-	=80-
!LO:TX:t=P:problem:kreska pseudotaktowa	!	!	!	!	!	!	!	!	!
0.GG/	-di	2B-\	.	2G/	tol-	1g\	mun-	2.b-\	pec-
!	!	!	!	!LO:TX:t=P:problem:kreska pseudotaktowa	!	!	!	!	!
.	.	2.G/	.	2G/	-lis	.	.	.	.
.	.	.	.	.	.	.	.	4a\	.
!	!	!	!	!	!	!LO:TX:t=P:problem:kreska pseudotaktowa	!	!	!
.	.	.	.	2.B-/	pec-	1d\	-di	4g/	-ca-
.	.	4A/	.	.	.	.	.	4f/	.
.	.	4B-/	.	.	.	.	.	1g\	.
.	.	4c/	.	4A/	.	.	.	.	.
=81-	=81-	=81-	=81-	=81-	=81-	=81-	=81-	=81-	=81-
.	.	2d\	.	4G/	.	2r	.	.	.
.	.	.	.	4F/	.	.	.	.	.
.	.	2.B-\	.	1G/	.	2.d\	pec-	4f/	.
.	.	.	.	.	.	.	.	4e/	.
0r	.	.	.	.	.	.	.	2d/	.
.	.	4A/	.	.	.	4c/	.	.	.
!	!	!	!	!LO:TX:t=P:problem:kreska pseudotaktowa	!	!	!	!	!
.	.	1d\	-ta	2F/	-ca-	2A/	-ca-	2f/	-ta
!	!	!	!	!LO:LB:g=original	!	!	!	!	!
=82-	=82-	=82-	=82-	=82-	=82-	=82-	=82-	=82-	=82-
!	!	!	!	!	!	!	!	!LO:TX:t=P:problem:kreska pseudotaktowa	!
.	.	.	.	2G/	.	2B-/	.	1e/	mun-
.	.	2c\	.	2A/	.	2c/	-ta	.	.
!	!	!	!	!	!	!	!	!LO:TX:t=P:problem:kreska pseudotaktowa	!
2r	.	1d\	mun-	2F/	.	2A/	.	0d/	-di.
*	*ij	*	*	*	*	*	*	*	*
2GG/	Qui	.	.	2G/	-ta	2.B-/	mun-	.	.
=83-	=83-	=83-	=83-	=83-	=83-	=83-	=83-	=83-	=83-
!	!	!LO:TX:t=P:problem:kreska pseudotaktowa	!	!	!	!	!	!	!
2GG/	tol-	0D/	-di	0.B-/	mun-	.	.	.	.
.	.	.	.	.	.	4A/	.	.	.
2GG/	-lis	.	.	.	.	4G/	.	.	.
.	.	.	.	.	.	4F/	.	.	.
2BB-/	pec-	.	.	.	.	0G/	.	2r	.
!LO:TX:t=P:problem:kreska pseudotaktowa	!	!	!	!	!	!	!	!	!
2GG/	-ca-	.	.	.	.	.	.	2d/	qui
=84-	=84-	=84-	=84-	=84-	=84-	=84-	=84-	=84-	=84-
2.BB-/	-ta	2r	.	.	.	.	.	2d/	tol-
.	.	1D/	qui	.	.	.	.	2d/	-lis
4C/	mun-	.	.	.	.	.	.	.	.
!LO:TX:t=P:problem:kreska pseudotaktowa	!	!	!	!	!	!	!	!	!
!LO:SIC:v:t=custos D	!	!	!LO:TX:t=P:problem:kreska pseudotaktowa	!	!	!	!	!	!
1D\	-di	.	.	1A/	-di	2.F/	.	1f/	pec-
.	.	2D/	tol-	.	.	.	.	.	.
.	.	.	.	.	.	4G/	.	.	.
!LO:LB:g=original	!	!	!	!	!	!	!	!	!
=85-	=85-	=85-	=85-	=85-	=85-	=85-	=85-	=85-	=85-
!	!	!	!	!	!	!LO:TX:t=P:problem:kreska pseudotaktowa	!	!	!
!	!	!	!	!	!	!LO:SIC:v:t=custos A	!	!	!
2r	.	1F/	-lis	1r	.	0A/	-di	2d/	-ca-
*	*Xij	*	*	*	*	*	*	*	*
2D\	qui	.	.	.	.	.	.	2.f/	.
2D\	tol-	2D/	pec-	1d\	Do-	.	.	.	.
.	.	.	.	.	.	.	.	4g/	.
!LO:TX:t=P:problem:kreska pseudotaktowa	!	!	!	!	!	!	!	!	!
2D\	-lis	2.d\	-ca-	.	.	.	.	1a\	ta
!	!	!	!	!	!	!LO:PB:g=original	!	!	!
=86-	=86-	=86-	=86-	=86-	=86-	=86-	=86-	=86-	=86-
2F\	pec-	.	.	2A/	-na	2r	.	.	.
.	.	4c\	.	.	.	.	.	.	.
2G\	-ca-	2B-\	ta	2B-/	.	1d\	/do-	1g\	mun-
!	!	!LO:TX:t=P:problem:kreska pseudotaktowa	!	!	!	!	!	!	!
1D\	.	1A\	.	1d\	no-	.	.	.	.
.	.	.	.	.	.	2A/	-na	2f/	.
=87-	=87-	=87-	=87-	=87-	=87-	=87-	=87-	=87-	=87-
!	!	!	!	!	!	!	!	!LO:TX:t=P:problem:kreska pseudotaktowa	!
!	!	!LO:TX:a:t=4	!	!	!	!	!	!LO:TX:a:t=3.	!
2GG,/	-ta	00G/	mun-	2.d\	-bis	2.B-/	no-	0.g\	-di.
2.G\	pec-	.	.	.	.	.	.	.	.
.	.	.	.	4c/	.	4c/	.	.	.
.	.	.	.	4B-/	.	2d\	-bis	.	.
4F\	.	.	.	4A/	.	.	.	.	.
4E\	-ca-	.	.	2.G/	pa-	1e\	pa-	.	.
!LO:TX:t=P:problem:kreska pseudotaktowa	!	!	!	!	!	!	!	!	!
4D\	.	.	.	.	.	.	.	.	.
=88-	=88-	=88-	=88-	=88-	=88-	=88-	=88-	=88-	=88-
2C/	.	.	.	.	.	.	.	.	.
.	.	.	.	4F/	.	.	.	.	.
2BB-/	.	.	.	2D/	.	1d\	.	.	.
!	!	!	!	!	!	!	!	!LO:LB:g=original	!
1C/	.	.	.	1E/	.	.	.	2r	.
.	.	.	.	.	.	2c\	.	1g\	do-
=89-	=89-	=89-	=89-	=89-	=89-	=89-	=89-	=89-	=89-
!	!	!LO:TX:t=P:problem:kreska pseudotaktowa	!	!	!	!LO:TX:t=P:problem:kreska pseudotaktowa	!	!	!
2GG/	.	1G/	-di	2D/	.	1d\	-cem	.	.
!	!	!	!	!LO:TX:t=P:problem:kreska pseudotaktowa	!	!	!	!	!
2BB-/	-ta	.	.	2G/	.	.	.	2d/	-na
2C/	mun-	1r	.	2c/	.	2r	.	2e/	no-
2D\	.	.	.	2A/	.	1d\	do-	2f/	-bis
=90-	=90-	=90-	=90-	=90-	=90-	=90-	=90-	=90-	=90-
!LO:TX:t=P:problem:kreska pseudotaktowa	!	!	!	!	!	!	!	!	!
1GG/	-di.	2r	.	2.B-/	.	.	.	1g\	pa-
!	!	!	!	!	!	!LO:TX:t=P:problem:kreska pseudotaktowa	!	!	!
.	.	1G/	Do-	.	.	2G/	-na	.	.
.	.	.	.	4c/	.	.	.	.	.
00r	.	.	.	4d/	.	1B-/	no-	2d/	.
.	.	.	.	4G/	.	.	.	.	.
!	!	!LO:TX:t=P:problem:kreska pseudotaktowa	!	!	!	!	!	!	!
.	.	2D/	-na	2.d\	.	.	.	4f/	.
!	!	!	!	!	!	!	!	!LO:TX:t=P:problem:kreska pseudotaktowa	!
.	.	.	.	.	.	.	.	4e/	.
=91-	=91-	=91-	=91-	=91-	=91-	=91-	=91-	=91-	=91-
.	.	2F/	no-	.	.	2A/	-bis	4f/	.
.	.	.	.	4c/	.	.	.	4g/	.
.	.	2F/	-bis	2A/	.	2.d\	pa-	2.a\	.
!	!	!	!	!LO:TX:t=P:problem:kreska pseudotaktowa	!	!	!	!	!
.	.	1G/	pa-	1B-/	-cem	.	.	.	.
.	.	.	.	.	.	4c/	.	4g/	.
.	.	.	.	.	.	2B-/	.	1g\	.
=92-	=92-	=92-	=92-	=92-	=92-	=92-	=92-	=92-	=92-
*	*	*lig	*	*	*ij	*	*	*	*
.	.	1D/	.	2r	.	1A/	.	.	.
.	.	.	.	1d\	Do-	.	.	2f/	.
!	!	!LO:TX:t=P:problem:kreska pseudotaktowa	!	!	!	!	!	!LO:TX:t=P:problem:kreska pseudotaktowa	!
1.G\	Do-	1G/	-cem	.	.	2G,/	-cem/	1g\	-cem
!	!	!	!	!	!	!LO:TX:t=P:problem:kreska pseudotaktowa	!	!	!
.	.	.	.	2G/	-na	2g\	do-	.	.
*	*	*Xlig	*	*	*	*	*	*	*
=93-	=93-	=93-	=93-	=93-	=93-	=93-	=93-	=93-	=93-
.	.	2r	.	1B-/	no-	2d\	-na	0r	.
*	*	*	*ij	*	*	*	*	*	*
2D\	-na	1d\	Do-	.	.	2.f\	no-	.	.
2F\	no-	.	.	2A/	-bis	.	.	.	.
.	.	.	.	.	.	4g\	.	.	.
!	!	!LO:TX:t=P:problem:kreska pseudotaktowa	!	!	!	!	!	!	!
2F\	-bis	2A\	-na	2.d\	pa-	1a\	-bis	.	.
=94-	=94-	=94-	=94-	=94-	=94-	=94-	=94-	=94-	=94-
1G\	pa-	2.B-\	no-	.	.	.	.	2r	.
.	.	.	.	4c/	.	.	.	.	.
!	!	!	!	!LO:TX:t=P:problem:kreska pseudotaktowa	!	!	!	!	!
*	*	*	*	*	*	*	*	*	*ij
.	.	.	.	2B-/	.	1g\	pa-	1dd\	do-
.	.	4c\	-bis	.	.	.	.	.	.
!LO:TX:t=P:problem:kreska pseudotaktowa	!	!	!	!	!	!	!	!	!
1D\	-cem	1d\	pa-	2A/	.	.	.	.	.
!	!	!	!	!	!	!LO:TX:t=P:problem:♯ above	!	!LO:TX:t=P:problem:kreska pseudotaktowa	!
.	.	.	.	1d\	.	2f#X\	.	2a\	-na
=95-	=95-	=95-	=95-	=95-	=95-	=95-	=95-	=95-	=95-
!	!	!	!	!	!	!LO:TX:t=P:problem:kreska pseudotaktowa	!	!	!
0r	.	2G,/	-cem	.	.	1g\	-cem	2b-\	no-
*	*	*	*Xij	*	*	*	*	*	*
.	.	2c\	do-	2.e\	.	.	.	2cc\	-bis
.	.	2c\	-na	.	.	2r	.	1dd\	pa-
.	.	.	.	4d\	.	.	.	.	.
!	!	!LO:TX:t=P:problem:kreska pseudotaktowa	!	!	!	!	!	!	!
!	!	!LO:SIC:v:t=custos c	!	!	!	!	!	!	!
*	*	*	*	*	*	*	*ij	*	*
.	.	2B-\	no-	1g\	.	2d\	do-	.	.
!	!	!LO:LB:g=original	!	!	!	!	!	!	!
=96-	=96-	=96-	=96-	=96-	=96-	=96-	=96-	=96-	=96-
!	!	!	!	!	!	!	!	!LO:TX:t=P:problem:kreska pseudotaktowa	!
2r	.	2c\	-bis	.	.	2e\	-na	1a\	-cem
!	!	!LO:TX:t=P:problem:kreska pseudotaktowa	!	!LO:TX:t=P:problem:♯ above	!	!LO:TX:t=P:problem:kreska pseudotaktowa	!	!	!
*	*ij	*	*	*	*	*	*	*	*
2D\	Do-	2d\	pa-	2f#X\	.	2d\	no-	.	.
!LO:SIC:v:s=2.E-	!	!	!	!	!	!	!	!	!
2.E\	-na	2G,/	-cem	1g\	.	2B-/	-bis	2r	.
!	!	!	!	!	!	!LO:TX:t=P:problem:♭ above	!	!	!
*	*	*	*ij	*	*	*	*	*	*Xij
.	.	1G/	do-	.	.	1e-X\	pa-	2g\	do-
4D/	.	.	.	.	.	.	.	.	.
=97-	=97-	=97-	=97-	=97-	=97-	=97-	=97-	=97-	=97-
!	!	!	!	!LO:TX:t=P:problem:kreska pseudotaktowa	!	!	!	!	!
2C/	no-	.	.	1G/	-cem	.	.	1g\	-na
2BB-/	-bis	2D/	-na	.	.	2d\	.	.	.
1AA/	pa-	2F\	no-	1r	.	1c\	.	1a\	no-
!	!	!LO:TX:t=P:problem:kreska pseudotaktowa	!	!	!	!	!	!	!
.	.	2F\	-bis	.	.	.	.	.	.
=98-	=98-	=98-	=98-	=98-	=98-	=98-	=98-	=98-	=98-
!LO:TX:t=P:problem:kreska pseudotaktowa	!	!	!	!	!	!	!	!	!
1GG/	-cem	1G/	pa-	2r	.	2B-/	.	2d/	-bis
*	*	*	*	*	*Xij	*	*	*	*
!	!	!	!	!LO:TX:t=P:problem:kreska pseudotaktowa	!	!	!	!	!
.	.	.	.	2d\	Do-	4A/	.	1g\	pa-
.	.	.	.	.	.	4G/	.	.	.
!	!	!LO:TX:t=P:problem:kreska pseudotaktowa	!	!	!	!	!	!	!
1r	.	1D/	-cem	2d\	-na	1A/	.	.	.
.	.	.	.	2d\	no-	.	.	2f#X/	.
*	*Xij	*	*Xij	*	*	*	*	*	*
=99-	=99-	=99-	=99-	=99-	=99-	=99-	=99-	=99-	=99-
!	!	!	!	!LO:SIC:v:s=1e-:t=?	!	!	!	!	!
1C/	Do-	2r	.	1e\	-bis	2G,/	-cem	00.g\;	-cem.
*	*	*	*	*	*	*	*Xij	*	*
!	!	!	!	!	!	!LO:TX:t=P:problem:kreska pseudotaktowa	!	!	!
.	.	1G/	Do-	.	.	2G/	do-	.	.
2GG/	-na	.	.	2.d\	pa-	2.B-/	-na	.	.
1BB-/	no-	2D/	-na	.	.	.	.	.	.
.	.	.	.	4c/	.	4c/	.	.	.
=100-	=100-	=100-	=100-	=100-	=100-	=100-	=100-	=100-	=100-
.	.	2.G/	no-	4B-/	.	4d\	no-	.	.
.	.	.	.	4A/	.	4e\	-bis	.	.
!	!	!	!	!LO:TX:t=P:problem:kreska pseudotaktowa	!	!	!	!	!
2BB-/	-bis	.	.	2B-/	.	1d\	pa-	.	.
.	.	4F/	-bis	.	.	.	.	.	.
!LO:TX:t=P:problem:♭ above	!	!LO:TX:t=P:problem:♭ above	!	!	!	!	!	!	!
1C-/	pa-	1E-X/	pa-	2G/	.	.	.	.	.
.	.	.	.	1c\	.	2c\	.	.	.
=101-	=101-	=101-	=101-	=101-	=101-	=101-	=101-	=101-	=101-
!	!	!LO:TX:a:t=O. ad M[aiorem] D[ei]. G[loria]m	!	!	!	!	!	!	!
0GG/;	-cem.	0D/;	-cem.	.	.	0d\;	-cem.	.	.
.	.	.	.	4BnX/	.	.	.	.	.
.	.	.	.	4A/	.	.	.	.	.
!	!	!	!	!LO:N:vis=00	!	!	!	!	!
.	.	.	.	1BX/;	-cem	.	.	.	.
==	==	==	==	==	==	==	==	==	==
*-	*-	*-	*-	*-	*-	*-	*-	*-	*-
!!!system-decoration: [(s1,s2,s3,s4,s5)]
!!!EED: Leszek Kubiak
!!!EST: 2021-03-18
!!!ENC: Krzysztof Stępień
!!!END: 2021-03-01
